X:1
T:Title
%%score ( 1 2 ) ( 3 4 )
L:1/8
Q:1/4=100
M:4/4
K:E
V:1 treble nm="Midi_20"
V:2 treble 
V:3 bass nm="Midi_20"
V:4 bass 
V:1
"^Blest are the pure in heart""^John Keble\n(1792-1866)" B2 | G2 E2 G2 B2 | %2
w: Blest|are the pure in|
w: The|Lord, who left the|
w: Still|to the low- ly|
w: Lord,|we Thy pres- ence|
"^Jamison 66. 86 (S.M.)" e6 c2 | B2 E2 B2 AG |"^Henry Smart\n(1813-1879)" F6 || B2 | G2 c2 ^A2 F2 | %7
w: heart, For|they shall see our *|God;|||
w: heavens Our|life and peace to *|bring,|||
w: soul He|doth Him- self im\- *|part;|||
w: seek; May|ours this bless- ing *|be;|||
 B2 e2 d2 c2 | B2 E2 A2 GF | E6 |] %10
w: |||
w: |||
w: |||
w: |||
V:2
 E2 | E2 E2 E2 F2 | E6 E2 | E2 E2 F2 E2 | D6 || F2 | E2 G2 F2 C2 | F2 F2 F2 F2 | B,2 C2 F2 D2 | %9
 E6 |] %10
V:3
 G,2 | B,2 B,2 B,2 F,2 | G,6 A,2 | B,2 G,2 F,2 B,2 | B,6 || B,2 | B,2 E2 C2 ^A,2 | %7
w: |||||The|sec- ret of *|
w: |||||To|dwell in * *|
w: |||||And|for His * *|
w: |||||Give|us a pure *|
 B,2 ^A,2 B,2 CD | %8
w: Lord is theirs; Their *|
w: ness with men Their *|
w: and His throne Choos\- *|
w: low- ly heart, A *|
 E2 G,2 C2"^Public Domain\nCourtesy of thé Cyber Hymnal (http: //www.cyberhymnal.org)" B,A, | %9
w: soul is Christs a\- *|
w: Pat- tern and their *|
w: eth the pure in *|
w: tem- ple meet for *|
 G,6 |] %10
w: bode.|
w: King.|
w: heart.|
w: Thee.|
V:4
 E,2 | E,2 G,2 E,2 D,2 | C,6 A,,2 | G,,2 C,2 D,2 E,2 | B,,6 || D,2 | E,2 C,2 F,2 F,E, | %7
w: ||||||* * * the *|
w: ||||||* * low- li\- *|
w: ||||||* * cra- dle *|
w: ||||||* * * and *|
 D,2 C,2 B,,2 =A,,2 | G,,2 C,2 A,,2 B,,2 | E,6 |] %10
w: |||
w: |||
w: |||
w: |||

